X: 5
T: Dr. Ross's 50th Welcome To The Argyllshire Gathering
Z: Solidmahog
S: https://thesession.org/tunes/9053#setting19863
R: reel
M: 4/4
L: 1/8
K: Amix
e | A>ce c<Ac | e>fe c2 A | c<ee e>cA | B<dc B2G | A>ce c<Ac | e>fe c2 A | c<ee e>dB | A3 A2 :| g | a>Aa A>ce | e>ca c2A | a>ed c<Ac | B<dc B2G | [1 a>Aa A>ce | e>ca c2A | c<ee e>dB | A3 A<A :| [2 A>ce c<Ac | e>fe c2 A | c<ee e>dB | A3 A2 ||e | A>AA c2d | e>fe c2A | e>AA c2e | B<dc B2G | A>AA c2d | e>fe c2A | c<ee e>dB | A3 A2 :| g | a>AA e>AA | e>ca c2A | c<ea e>cA | B<dg B2G | [1 a>AA e>AA | e>ca c2A | c<ee e>dB | A3 A<A :| [2 A>Bc B>cd | c<ea c2A | c<ee e>dB | A3 A3 ||
